nextjs/public/images/bg-evolution-green.svg

<svg width="53" height="20" viewBox="0 0 53 20" fill="none" xmlns="http://www.w3.org/2000/svg">
<path d="M52.5614 10.0693L52.8116 13.5821L52.6596 14.6225L52.1591 15.531L51.2045 16.1866L49.6462 16.3L49.4111 16.1741L48.3026 16.2548L48.0878 16.4134L46.8668 16.5022L45.9619 16.2678L45.212 16.6226L42.9949 16.784L42.7487 16.5017L42.2077 16.8412L40.9867 16.9301L40.7517 16.8042L39.7556 16.8767L39.5408 17.0353L37.9985 17.1475L37.7634 17.0217L36.5424 17.1105L36.2253 17.4195L34.7752 17.2391L34.5604 17.3977L33.8755 17.3046L30.8873 17.522L30.6725 17.6806L26.897 17.9553L26.662 17.8295L19.4485 18.3544L19.2337 18.513L16.7917 18.6907L16.5566 18.5648L14.4419 18.5757L13.7884 18.9235L12.8947 18.8456L12.537 18.5857L11.1386 19.1306L9.47785 19.3944L8.0218 19.3574L7.43823 19.0996L6.78966 19.2898L4.04661 19.7753L2.68175 19.4315L1.64414 18.9208L0.988648 17.6533L0.884313 16.1884L1.05656 15.4325L0.561179 11.6515L0.65338 11.3589L0.536912 8.13653L0.166125 6.1049L1.1288 3.97624L1.80876 4.22698L3.23341 3.8231L3.46846 3.94895L6.00266 3.47863L11.3204 3.09168L11.5555 3.21753L13.7726 3.05621L13.9873 2.89762L16.4293 2.71992L17.1083 2.95644L18.7428 2.55158L20.51 2.42299L20.6326 2.55703L22.2874 2.43661L22.5022 2.27803L23.3858 2.21373L24.2897 2.43388L25.153 2.08513L25.7255 2.18644L26.139 1.87043L26.9465 2.09759L30.3845 1.84742L30.4869 1.69701L31.483 1.62453L31.9743 2.17491L32.2904 1.85169L33.1538 1.50295L34.921 1.37436L35.1561 1.50021L37.1381 1.21303L39.0492 1.51714L39.1019 2.25669L39.4393 2.23214L40.1375 1.15203L40.5772 0.977077L43.2542 0.925239L43.469 0.76665L46.4573 0.549208L47.051 0.949179L48.0156 0.435811L50.253 0.558926L51.0555 0.943701L51.7973 2.06199L52.0455 3.95958L51.9533 4.2522L52.3483 9.79886L52.4821 10.0893L52.5614 10.0693Z" fill="#61A534"/>
</svg>

<svg xmlns="http://www.w3.org/2000/svg" width="53" height="20" fill="none">
  <path fill="#61a534" d="m52.6 10 .2 3.6-.1 1-.5 1-1 .6-1.6.1-.2-.1h-1.1l-.2.2-1.2.1-1-.2-.7.3-2.2.2-.3-.3-.5.3-1.2.1-.2-.1h-1l-.3.2-1.5.1h-1.5l-.3.3-1.4-.2-.2.2-.7-.1-3 .2-.2.2-3.8.3-.2-.2-7.3.6-.2.1-2.4.2-.2-.1h-2.2l-.6.3h-1l-.3-.3-1.4.5-1.6.3H8l-.6-.3-.6.2-2.8.5-1.3-.4-1-.5-.7-1.2-.1-1.5.2-.8-.5-3.7V8L.2 6l1-2.1.6.2 1.4-.4.3.1L6 3.5l5.3-.4.3.1 2.2-.1.2-.2 2.4-.2.7.3 1.6-.4 1.8-.2.1.2 1.7-.2.2-.1h.9l.9.1.9-.3h.5l.4-.2.8.2 3.5-.3v-.1h1l.6.5.3-.3.9-.4 1.7-.1.3.1 2-.3 1.8.3.1.8h.3l.7-1.1.5-.2h2.7l.2-.2 3-.3.6.4 1-.5 2.2.2.8.3.7 1.2L52 4v.3l.3 5.5.2.3"/>
</svg>
